<?xml version="1.0" encoding="UTF-8"?>
<map version="1.10" tiledversion="1.11.2" orientation="orthogonal" renderorder="right-down" width="60" height="36" tilewidth="32" tileheight="30" infinite="0" nextlayerid="8" nextobjectid="7">
 <tileset firstgid="1" source="hab.tsx"/>
 <layer id="1" name="ice" width="60" height="36" locked="1">
  <data encoding="csv">
564,563,563,563,564,563,563,565,564,564,564,563,563,563,563,563,564,563,565,564,563,565,564,563,563,564,565,564,564,564,563,563,565,565,565,565,565,563,565,564,563,564,563,564,564,565,565,564,565,563,563,565,563,564,565,564,565,563,564,565,
565,565,565,564,563,564,565,565,563,563,565,563,565,563,564,565,564,563,564,565,564,565,564,565,565,565,563,565,564,564,563,564,564,563,564,564,564,565,563,565,564,564,563,564,565,565,564,565,564,563,564,564,563,564,563,565,563,565,564,564,
563,563,565,565,564,564,565,565,565,565,563,565,565,563,563,564,564,565,563,563,563,563,565,565,563,563,563,563,564,565,563,564,564,564,565,565,564,565,565,565,565,564,563,564,564,564,565,564,565,564,564,563,565,563,564,564,565,565,563,565,
565,565,564,564,565,563,564,564,565,565,564,563,565,565,563,565,563,564,564,563,565,565,565,565,565,564,565,564,563,564,565,565,564,564,564,564,563,563,563,564,564,565,564,564,563,563,563,563,564,565,565,563,563,563,564,563,564,565,564,563,
563,565,565,565,563,563,563,565,564,564,564,565,563,565,565,563,564,565,564,564,565,565,563,564,564,565,563,563,563,563,564,563,564,564,564,564,565,565,565,563,564,563,564,563,565,564,563,565,563,564,563,563,564,563,563,564,565,565,563,563,
563,563,565,565,565,564,563,564,565,564,563,565,564,564,565,564,565,565,565,564,564,564,565,564,565,563,565,564,563,563,563,564,564,565,563,564,564,564,565,565,564,564,565,565,565,563,565,563,563,563,563,565,563,565,564,563,564,564,563,565,
565,564,563,563,565,564,564,564,565,564,565,564,565,563,563,564,565,565,563,563,563,563,563,565,563,563,563,563,563,563,563,563,565,564,563,564,564,564,563,565,563,565,563,563,565,564,565,563,565,564,565,563,564,563,565,565,564,565,565,564,
564,563,563,565,563,564,563,564,564,564,564,565,565,565,565,564,565,565,565,565,564,563,563,565,563,565,565,563,564,564,563,565,563,565,565,565,564,563,563,563,565,563,565,565,564,565,563,565,565,565,565,565,564,563,564,565,563,564,565,564,
565,563,565,563,564,565,564,565,563,563,563,565,564,563,565,564,565,563,563,565,564,563,563,565,565,563,565,563,565,563,563,565,565,563,565,563,565,565,563,564,563,565,565,563,564,564,563,565,563,565,565,563,563,563,565,564,564,565,563,565,
563,565,563,565,565,564,564,563,563,564,564,564,563,565,565,565,565,565,564,563,563,564,564,563,565,563,564,565,563,564,565,565,565,565,565,564,565,563,564,563,565,564,565,564,565,564,564,564,563,563,564,563,563,563,565,563,565,565,565,564,
565,564,565,565,565,564,563,565,565,564,565,564,565,563,563,563,563,563,565,565,564,564,563,565,565,564,564,564,565,565,563,564,563,563,564,563,565,565,564,563,564,564,564,564,565,565,565,565,563,564,563,564,563,564,564,565,563,565,564,564,
565,563,563,565,564,563,565,564,564,563,564,564,564,565,564,563,563,564,563,565,564,564,564,564,565,565,565,563,565,564,564,563,565,563,565,564,565,564,564,563,564,565,564,563,565,564,564,563,564,563,565,563,565,565,565,564,563,565,563,564,
564,564,563,565,563,563,563,565,564,564,563,564,563,564,565,564,563,564,565,564,563,564,563,564,565,563,563,564,565,563,564,565,565,564,565,564,563,564,563,564,563,563,563,564,563,565,563,564,563,563,564,565,565,565,565,563,565,564,565,565,
565,564,565,564,563,563,563,564,564,564,564,563,563,563,565,563,565,563,565,564,565,565,565,564,565,564,565,563,565,564,565,564,563,565,564,564,565,565,563,565,565,563,565,564,565,565,563,564,563,564,564,563,564,564,563,564,565,564,563,565,
564,564,563,565,564,565,564,563,564,565,565,563,565,565,564,563,564,565,563,564,565,563,563,563,565,564,565,565,564,564,564,563,564,564,564,563,564,564,564,565,563,564,565,564,565,563,563,564,563,565,563,564,564,564,564,563,564,563,564,564,
564,563,565,563,564,565,565,564,563,563,565,563,563,564,563,563,564,564,564,563,563,563,565,565,564,564,563,563,565,563,565,565,564,564,565,564,565,564,564,563,563,564,564,564,565,565,563,564,564,564,565,564,565,563,564,564,565,563,564,565,
564,564,563,565,565,565,563,565,563,563,565,563,563,564,565,564,564,565,564,563,564,563,565,563,564,565,565,565,564,564,563,564,563,564,564,563,565,563,565,564,565,564,563,564,564,565,565,564,563,565,565,565,565,565,564,563,565,563,565,563,
565,563,563,565,564,563,563,564,565,565,565,565,565,564,563,564,565,565,563,563,565,564,565,563,565,565,564,565,563,563,563,565,565,564,564,564,565,565,564,565,565,563,565,564,563,564,564,563,563,563,565,565,563,563,564,564,563,563,564,565,
563,565,564,565,565,563,563,563,564,565,564,565,564,564,564,565,563,565,565,565,563,564,563,565,563,563,563,565,563,563,565,564,564,563,563,565,565,563,563,565,564,564,564,564,564,565,564,564,563,563,564,563,564,565,564,565,563,565,565,565,
565,563,563,563,565,563,565,565,565,563,565,565,564,563,563,564,564,564,565,564,563,565,563,563,563,565,564,565,563,564,565,564,563,564,563,563,563,563,565,563,565,564,565,563,565,564,563,563,564,564,565,565,565,565,563,563,564,564,563,563,
564,563,563,564,563,563,564,565,563,563,564,563,565,563,563,563,564,565,563,565,564,565,564,563,564,565,564,565,565,564,564,564,564,563,565,564,564,564,565,564,565,563,564,565,564,563,565,564,564,565,565,565,565,563,564,563,564,564,564,565,
563,563,564,563,563,564,564,565,565,565,563,563,563,565,565,563,564,564,564,565,564,565,564,565,563,565,563,565,563,565,564,563,563,565,563,563,563,565,563,564,565,563,564,565,564,563,563,564,563,563,563,565,564,564,564,565,565,563,564,564,
565,563,564,565,565,565,564,565,564,565,565,563,563,563,565,565,563,563,564,565,565,565,564,564,564,564,565,565,564,565,564,565,565,564,564,565,563,563,563,564,565,564,563,564,564,563,565,564,564,564,564,565,563,563,564,565,565,564,564,565,
564,564,564,564,563,563,565,563,565,563,563,564,565,563,563,565,565,565,564,563,563,565,565,565,565,565,564,565,563,564,564,563,565,564,565,564,563,564,565,565,565,564,564,563,565,565,565,565,564,563,564,565,564,563,564,564,564,564,565,564,
564,563,564,564,564,564,565,563,564,564,563,565,563,565,564,565,565,564,565,565,564,564,564,563,564,565,565,563,563,564,565,564,564,564,565,564,564,565,565,564,565,564,563,563,563,564,565,563,564,565,565,563,565,563,565,564,563,565,565,565,
563,564,565,565,565,565,563,565,564,564,564,564,563,564,565,565,565,565,564,564,564,565,563,564,563,563,563,564,563,564,564,564,563,564,565,563,565,563,564,564,565,563,565,564,563,565,563,563,564,563,565,563,563,564,565,564,563,564,564,565,
563,564,565,563,563,564,565,565,563,564,564,564,565,563,563,563,563,563,563,564,564,564,565,565,563,564,563,565,564,563,564,563,563,563,563,563,565,565,564,564,564,563,563,563,565,564,564,565,564,563,565,565,565,565,565,563,565,563,565,565,
564,564,565,564,563,564,563,565,564,565,563,563,565,563,564,564,565,564,563,563,565,564,564,564,564,564,565,564,563,564,563,565,563,565,565,564,564,563,563,563,565,564,563,564,564,564,564,564,563,563,563,563,565,565,564,564,565,563,564,563,
564,565,565,563,564,563,563,564,565,564,563,563,565,565,565,563,564,564,565,564,563,564,565,563,563,563,564,565,564,565,563,563,565,565,564,563,563,565,564,564,563,565,563,565,563,565,563,564,565,565,563,563,564,563,564,565,565,565,565,565,
565,565,563,563,564,563,565,564,563,564,565,565,564,563,563,565,564,565,565,564,563,563,565,564,563,564,565,565,564,564,564,564,564,565,564,563,564,563,565,565,565,563,563,565,564,564,564,565,564,565,563,564,565,564,564,565,565,564,565,563,
563,564,563,563,565,564,564,565,563,564,565,563,565,563,563,563,565,565,564,565,564,565,564,563,565,564,565,565,565,565,565,563,563,563,565,565,564,565,563,565,565,563,563,565,563,565,565,564,564,563,564,565,564,563,565,564,563,564,564,563,
564,565,564,565,563,565,565,563,565,565,563,563,565,563,565,563,565,564,564,565,563,563,565,564,565,564,565,565,564,563,565,563,564,563,563,563,563,565,563,563,563,564,565,564,565,564,564,564,563,563,563,564,564,564,563,563,564,563,563,563,
565,565,565,565,563,564,564,563,564,565,564,565,564,564,565,565,563,564,565,564,563,564,564,564,564,565,565,563,565,565,565,563,564,565,565,563,565,564,565,565,564,565,565,564,565,563,565,563,564,564,565,563,565,563,564,565,563,565,565,563,
565,563,563,563,565,565,565,564,563,564,565,563,564,564,563,563,565,565,563,565,564,564,565,565,564,564,565,563,564,563,564,564,565,565,565,564,563,564,565,565,563,563,563,563,564,563,563,565,565,563,565,563,564,564,565,564,565,565,565,564,
564,565,565,565,563,565,563,563,563,565,565,564,564,563,565,565,564,563,564,564,565,565,565,565,565,565,564,564,564,564,563,565,565,563,565,564,565,563,563,565,564,563,565,565,565,563,563,563,564,563,564,563,564,563,564,565,563,565,565,565,
564,564,564,563,563,563,564,563,564,565,564,563,565,564,563,565,564,563,564,564,564,564,563,565,564,563,563,565,565,565,563,563,564,563,565,565,564,563,563,563,563,565,564,564,565,563,564,563,565,565,564,565,565,564,564,565,565,564,564,565
</data>
 </layer>
 <layer id="7" name="road" width="60" height="36" locked="1">
  <data encoding="csv">
0,0,110,110,0,0,0,0,0,0,0,0,0,0,0,0,0,0,0,0,0,0,0,0,0,0,0,0,0,0,0,0,0,0,0,0,0,0,0,0,0,0,0,0,0,0,0,0,0,0,0,0,0,0,0,0,0,0,0,0,
0,0,110,110,0,0,0,0,0,0,0,0,0,0,0,0,0,0,0,0,0,0,0,0,0,0,0,0,0,0,0,0,0,0,0,0,0,0,0,0,0,0,0,0,0,0,0,0,0,0,0,0,0,0,0,0,0,0,0,0,
0,0,110,110,0,0,0,0,0,0,0,0,0,0,0,0,0,0,0,0,0,0,0,0,110,110,110,110,110,110,110,110,110,110,110,110,110,110,0,0,0,0,0,0,0,0,0,0,0,0,0,0,0,0,0,0,0,0,0,0,
0,0,110,110,0,0,0,0,0,0,0,0,0,0,0,0,0,0,0,0,0,0,0,0,110,110,110,110,110,110,110,110,110,110,110,110,110,110,0,0,0,0,0,0,0,0,0,0,0,0,0,0,0,0,0,0,0,0,0,0,
0,0,110,110,0,0,0,0,0,0,0,0,0,0,0,0,0,0,0,0,0,0,0,0,110,110,0,0,0,0,0,0,0,0,0,0,110,110,0,0,0,0,0,0,0,0,0,0,0,0,0,0,0,0,0,0,0,0,0,0,
0,0,110,110,0,0,0,0,0,0,0,0,0,0,0,0,0,0,0,0,0,0,0,0,110,110,0,0,0,0,0,0,0,0,0,0,110,110,0,0,0,0,0,0,0,0,0,0,0,0,0,0,0,0,0,0,0,0,0,0,
0,0,110,110,0,0,0,0,0,0,0,0,0,0,0,0,0,0,0,0,0,0,0,0,110,110,0,0,0,0,0,0,0,0,0,0,110,110,0,0,0,0,0,0,0,0,0,0,0,0,0,0,0,0,0,0,0,0,0,0,
0,0,110,110,0,0,0,0,0,0,0,0,0,0,0,0,0,0,0,0,0,0,0,0,110,110,0,0,0,0,0,0,0,0,0,0,110,110,0,0,0,0,0,0,0,0,0,0,0,0,0,0,0,0,0,0,0,0,0,0,
0,0,110,110,0,0,0,0,0,0,0,0,0,0,0,0,0,0,0,0,0,0,0,0,110,110,0,0,0,0,0,0,0,0,0,0,110,110,0,0,0,0,0,0,0,0,0,0,0,0,0,0,0,0,0,0,0,0,0,0,
0,0,110,110,0,0,0,0,0,0,0,0,0,0,0,0,0,0,0,0,0,0,0,0,110,110,0,0,0,0,0,0,0,0,0,0,110,110,0,0,0,0,0,0,0,0,0,0,0,0,0,0,0,0,0,0,0,0,0,0,
0,0,110,110,110,110,110,110,110,110,110,110,110,110,110,110,110,110,110,110,110,110,110,110,110,110,0,0,0,0,0,0,0,0,0,0,110,110,0,0,0,0,0,0,0,0,0,0,0,0,0,0,0,0,0,0,0,0,0,0,
0,0,110,110,110,110,110,110,110,110,110,110,110,110,110,110,110,110,110,110,110,110,110,110,110,110,0,0,0,0,0,0,0,0,0,0,110,110,0,0,0,0,0,0,0,0,0,0,0,0,0,0,0,0,0,0,0,0,0,0,
0,0,0,0,0,0,0,0,0,0,0,0,0,0,0,0,0,0,0,0,0,0,0,0,0,0,0,0,0,0,0,0,0,0,0,0,110,110,0,0,0,0,0,0,0,0,0,0,0,0,0,0,0,0,0,0,0,0,0,0,
0,0,0,0,0,0,0,0,0,0,0,0,0,0,0,0,0,0,0,0,0,0,0,0,0,0,0,0,0,0,0,0,0,0,0,0,110,110,0,0,0,0,0,0,0,0,0,0,0,0,0,0,0,0,0,0,0,0,0,0,
0,0,110,110,110,110,110,110,110,110,110,110,110,110,110,110,110,110,110,110,110,110,110,110,110,110,110,110,110,110,110,110,110,110,110,110,110,110,0,0,0,0,0,0,0,0,0,0,0,0,0,0,0,0,0,0,0,0,0,0,
0,0,110,110,110,110,110,110,110,110,110,110,110,110,110,110,110,110,110,110,110,110,110,110,110,110,110,110,110,110,110,110,110,110,110,110,110,110,0,0,0,0,0,0,0,0,0,0,0,0,0,0,0,0,0,0,0,0,0,0,
0,0,110,110,0,0,0,0,0,0,0,0,0,0,0,0,0,0,0,0,0,0,0,0,0,0,0,0,0,0,0,0,0,0,0,0,0,0,0,0,0,0,0,0,0,0,0,0,0,0,0,0,0,0,0,0,0,0,0,0,
0,0,110,110,0,0,0,0,0,0,0,0,0,0,0,0,0,0,0,0,0,0,0,0,0,0,0,0,0,0,0,0,0,0,0,0,0,0,0,0,0,0,0,0,0,0,0,0,0,0,0,0,0,0,0,0,0,0,0,0,
0,0,110,110,0,0,0,0,0,110,110,110,110,110,110,110,110,110,110,110,110,110,110,110,110,0,0,0,0,0,0,0,0,0,0,0,0,0,0,0,0,0,0,0,0,0,0,0,0,0,0,0,0,0,0,0,0,0,0,0,
0,0,110,110,0,0,0,0,0,110,110,110,110,110,110,110,110,110,110,110,110,110,110,110,110,0,0,0,0,0,0,0,0,0,0,0,0,0,0,0,0,0,0,0,0,0,0,0,0,0,0,0,0,0,0,0,0,0,0,0,
0,0,110,110,0,0,0,0,0,110,110,0,0,0,0,0,0,0,0,0,0,0,0,110,110,0,0,0,0,0,0,0,0,0,0,0,0,0,0,0,0,0,0,0,0,0,0,0,0,0,0,0,0,0,0,0,0,0,0,0,
0,0,110,110,0,0,0,0,0,110,110,0,0,0,0,0,0,0,0,0,0,0,0,110,110,0,0,0,0,0,0,0,0,0,0,0,0,0,0,0,0,0,0,0,0,0,0,0,0,0,0,0,0,0,0,0,0,0,0,0,
0,0,110,110,0,0,0,0,0,110,110,0,0,0,0,0,0,0,0,0,0,0,0,110,110,0,0,0,0,0,0,0,0,0,0,0,0,0,0,0,0,0,0,0,0,0,0,0,0,0,0,0,0,0,0,0,0,0,0,0,
0,0,110,110,0,0,0,0,0,110,110,0,0,0,0,0,0,0,0,0,0,0,0,110,110,0,0,0,0,0,0,0,0,0,0,0,0,0,0,0,0,0,0,0,0,0,0,0,0,0,0,0,0,0,0,0,0,0,0,0,
0,0,110,110,0,0,0,0,0,110,110,0,0,0,0,0,0,0,0,0,0,0,0,110,110,0,0,0,0,0,0,0,0,0,0,0,0,0,0,0,0,0,0,0,0,0,0,0,0,0,0,0,0,0,0,0,0,0,0,0,
0,0,110,110,0,0,0,0,0,110,110,0,0,0,0,0,0,0,0,0,0,0,0,110,110,0,0,0,0,0,0,0,0,0,0,0,0,0,0,0,0,0,0,0,0,0,0,0,0,0,0,0,0,0,0,0,0,0,0,0,
0,0,110,110,0,0,0,0,0,110,110,0,0,0,0,0,0,0,0,0,0,0,0,110,110,0,0,0,0,0,0,0,0,0,0,0,0,0,0,0,0,0,0,0,0,0,0,0,0,0,0,0,0,0,0,0,0,0,0,0,
0,0,110,110,0,0,0,0,0,110,110,0,0,0,0,0,0,0,0,0,0,0,0,110,110,0,0,0,0,0,0,0,0,0,0,0,0,0,0,0,0,0,0,0,0,0,0,0,0,0,0,0,0,0,0,0,0,0,0,0,
0,0,110,110,0,0,0,0,0,110,110,0,0,0,0,0,0,0,0,0,0,0,0,110,110,0,0,0,0,0,0,0,0,0,0,0,0,0,0,0,0,0,0,0,0,0,0,0,0,0,0,0,0,0,0,0,0,0,0,0,
0,0,110,110,0,0,0,0,0,110,110,0,0,0,0,0,0,0,0,0,0,0,0,110,110,110,110,110,110,110,110,110,110,110,110,110,110,110,110,110,110,110,110,110,110,110,110,110,110,110,110,110,110,110,110,110,110,110,110,110,
0,0,110,110,0,0,0,0,0,110,110,0,0,0,0,0,0,0,0,0,0,0,0,110,110,110,110,110,110,110,110,110,110,110,110,110,110,110,110,110,110,110,110,110,110,110,110,110,110,110,110,110,110,110,110,110,110,110,110,110,
0,0,110,110,0,0,0,0,0,110,110,0,0,0,0,0,0,0,0,0,0,0,0,0,0,0,0,0,0,0,0,0,0,0,0,0,0,0,0,0,0,0,0,0,0,0,0,0,0,0,0,0,0,0,0,0,0,0,0,0,
0,0,110,110,110,110,110,110,110,110,110,0,0,0,0,0,0,0,0,0,0,0,0,0,0,0,0,0,0,0,0,0,0,0,0,0,0,0,0,0,0,0,0,0,0,0,0,0,0,0,0,0,0,0,0,0,0,0,0,0,
0,0,110,110,110,110,110,110,110,110,110,0,0,0,0,0,0,0,0,0,0,0,0,0,0,0,0,0,0,0,0,0,0,0,0,0,0,0,0,0,0,0,0,0,0,0,0,0,0,0,0,0,0,0,0,0,0,0,0,0,
0,0,0,0,0,0,0,0,0,0,0,0,0,0,0,0,0,0,0,0,0,0,0,0,0,0,0,0,0,0,0,0,0,0,0,0,0,0,0,0,0,0,0,0,0,0,0,0,0,0,0,0,0,0,0,0,0,0,0,0,
0,0,0,0,0,0,0,0,0,0,0,0,0,0,0,0,0,0,0,0,0,0,0,0,0,0,0,0,0,0,0,0,0,0,0,0,0,0,0,0,0,0,0,0,0,0,0,0,0,0,0,0,0,0,0,0,0,0,0,0
</data>
 </layer>
 <objectgroup id="6" name="path">
  <object id="6" x="96.4122" y="1.58053">
   <polyline points="0,0 -0.790264,325.589 704.125,327.169 703.335,87.7193 1086.61,88.5096 1087.4,445.709 0,447.289 0,987.04 223.645,987.04 223.645,568.2 671.724,568.2 671.724,896.95 1924.29,898.53"/>
  </object>
 </objectgroup>
</map>
